svgs/pixelfed.svg

<svg width="192" height="192" viewBox="0 0 192 192" fill="none" xmlns="http://www.w3.org/2000/svg">
<path d="M85.9482 60.7071C76.5422 60.7071 68.8538 68.5609 68.8538 78.1022V139.461L93.4852 114.791H104.877C119.51 114.791 131.434 102.619 131.434 87.7501C131.434 72.881 119.51 60.7071 104.877 60.7071H85.9482Z" stroke="black" stroke-width="12" stroke-linecap="round" stroke-linejoin="round"/>
<path d="M86.3362 120.09L69.9927 139.214C73.4435 159.364 94.6865 169.65 114.842 167.102C145.7 155.438 109.073 166.084 98.0464 158.975C94.3921 156.718 91.4243 153.619 89.2275 150.038C84.1008 141.682 79.6768 126.759 86.3362 120.09Z" stroke="black" stroke-width="8" stroke-linecap="round" stroke-linejoin="round"/>
<path d="M116.728 112.809C120.153 110.854 120.153 110.854 116.728 112.809Z" stroke="black" stroke-width="8" stroke-linecap="round" stroke-linejoin="round"/>
<path d="M141.718 122.348C132.485 124.067 122.603 120.176 116.728 112.809C111.088 115.994 104.561 115.695 98.3313 115.66C106.501 132.608 127.417 141.877 145.114 135.539C168.395 122.846 174.938 104.426 170.87 82.8842C170.349 85.0212 172.788 89.7 170.021 89.9081C165.71 106.25 158.503 119.077 141.718 122.348Z" stroke="black" stroke-width="8" stroke-linecap="round" stroke-linejoin="round"/>
<path d="M67.3141 74.7037C47.1774 74.554 29.9251 92.4054 28.5267 112.357C27.3437 123.275 30.795 134.252 37.0063 143.131L43.9651 145.036C38.459 137.566 37.2312 126.73 38.705 117.102C39.9116 102.263 54.008 89.5415 68.8783 91.7096V83.2212C66.0065 84.0948 70.3915 81.8187 68.8783 78.9707C68.2099 77.0005 71.2694 73.6269 67.3141 74.7037Z" stroke="black" stroke-width="8" stroke-linecap="round" stroke-linejoin="round"/>
<path d="M107.388 61.6998C103.313 43.9405 86.6134 29.1966 68.4732 29.7683C57.9372 25.463 36.2143 48.1271 38.2533 47.8848C47.3326 35.4845 71.6678 38.7087 82.6541 49.7128C89.603 57.6747 84.835 63.4016 91.7759 61.8574" stroke="black" stroke-width="8" stroke-linejoin="round"/>
<path d="M116.422 24.6291C133.144 30.802 140.698 56.6941 130.656 71.4443C125.222 77.5198 134.84 86.3522 130.848 94.3556C146.389 83.9497 153.253 56.5293 143.368 39.8967C135.247 30.7039 135.785 31.2861 116.422 24.6291Z" stroke="black" stroke-width="8" stroke-linecap="round" stroke-linejoin="round"/>
<path d="M96.1236 170.114C137.061 170.114 170.247 136.96 170.247 96.0633C170.247 55.1663 137.061 22.0127 96.1236 22.0127C55.1863 22.0127 22 55.1663 22 96.0633C22 136.96 55.1863 170.114 96.1236 170.114Z" stroke="black" stroke-width="12" stroke-linecap="round" stroke-linejoin="round"/>
</svg>

<svg width="192" height="192" viewBox="0 0 192 192" fill="none" xmlns="http://www.w3.org/2000/svg"><path d="M85.948 60.707c-9.406 0-17.094 7.854-17.094 17.395v61.359l24.631-24.67h11.392c14.633 0 26.557-12.172 26.557-27.04 0-14.87-11.924-27.044-26.557-27.044H85.948Z" stroke="#000" stroke-width="12" stroke-linecap="round" stroke-linejoin="round"/><path d="m86.336 120.09-16.343 19.124c3.45 20.15 24.694 30.436 44.849 27.888 30.858-11.664-5.769-1.018-16.796-8.127-3.654-2.257-6.622-5.356-8.819-8.937-5.126-8.356-9.55-23.279-2.89-29.948ZM116.728 112.809c3.425-1.955 3.425-1.955 0 0Z" stroke="#000" stroke-width="8" stroke-linecap="round" stroke-linejoin="round"/><path d="M141.718 122.348c-9.233 1.719-19.115-2.172-24.99-9.539-5.64 3.185-12.167 2.886-18.397 2.851 8.17 16.948 29.086 26.217 46.783 19.879 23.281-12.693 29.824-31.113 25.756-52.655-.521 2.137 1.918 6.816-.849 7.024-4.311 16.342-11.518 29.169-28.303 32.44ZM67.314 74.704c-20.137-.15-37.389 17.701-38.787 37.653-1.183 10.918 2.268 21.895 8.48 30.774l6.958 1.905c-5.506-7.47-6.734-18.306-5.26-27.934 1.207-14.839 15.303-27.56 30.173-25.392V83.22c-2.871.874 1.513-1.402 0-4.25-.668-1.97 2.391-5.344-1.564-4.267Z" stroke="#000" stroke-width="8" stroke-linecap="round" stroke-linejoin="round"/><path d="M107.388 61.7c-4.075-17.76-20.775-32.503-38.915-31.932-10.536-4.305-32.259 18.36-30.22 18.117 9.08-12.4 33.415-9.176 44.401 1.828 6.949 7.962 2.181 13.689 9.122 12.144" stroke="#000" stroke-width="8" stroke-linejoin="round"/><path d="M116.422 24.63c16.722 6.172 24.276 32.064 14.234 46.814-5.434 6.076 4.184 14.908.192 22.912 15.541-10.406 22.405-37.827 12.52-54.46-8.121-9.192-7.583-8.61-26.946-15.267Z" stroke="#000" stroke-width="8" stroke-linecap="round" stroke-linejoin="round"/><path d="M96.124 170.114c40.937 0 74.123-33.154 74.123-74.05 0-40.898-33.186-74.051-74.123-74.051C55.186 22.013 22 55.166 22 96.063s33.186 74.051 74.124 74.051Z" stroke="#000" stroke-width="12" stroke-linecap="round" stroke-linejoin="round"/></svg>
